X: 39116
T: Sweet Biddy Of Ballyvourney
R: reel
M: 4/4
K: Gmajor
G2BG Bdde|fdge fdcA|G2BG Bdde|1 fdcA FGAF:|2 fdcA AGG2||
g2dg gfde|fdge fdcA|g2dg gfde|fdcA AGG2|
dg~g2 gfde|~f3g fdcA|dg~g2 bgag|fdcA FGAF||

